X: 3
T: Keane's Of Dublin
R: hornpipe
M: 4/4
L: 1/8
K: Amin
|:A2 Gc AD D2|A2 GE cdec|A2 Gc AD D2|G3A GEDc|
A2 Gc AD D2|A2 GE cdec|A2 Gc d3e|cABG EA A2:|
|:cded cA A2|BG G2 cAAB|cded cAAB|cABG EAAB|
cded cA A2|BG G2 c3d|e3g aged|cABG EA A2:|

